X:1
T: The Bunch of Green Rushes
C:
R:Reel
Q: 232
K:C
M:4/4
L:1/8
d|cA FA ((3GFE) FG|cA GB Ad de|dA GA FE FG|fd ec Ad de|
cA FA ((3GFE) FG|cA GB Ad de|cA GA FE FG|fd ec Ad dd|
|:de fg ab af|ge ce ga ge|de fg ab af|ge ce ed d2|
de fg bg ed|^cd ef g2 fg|af ge fd ec|dc AG Ad de:|
cA FA ((3GFE) FG|cA GB Ad de|dA GA FE FG|fd ec Ad de|
cA FA ((3GFE) FG|cA GB Ad de|cA GA FE FG|fd ec Ad d||
